Origami/16x16/apps/multimedia-photo-viewer-symbolic.svg

<svg width="16" height="16" version="1.1" xmlns="http://www.w3.org/2000/svg">
 <path d="m1 0c-1 0-1 1-1 1v10c0 0.83 0.65 1 0.89 1l0.21-0.44c0.28-0.56 0.65-1.08 1.06-1.56h-0.16v-2.5l2.5-2.93 2.36 2.67c0.7-0.16 1.42-0.24 2.14-0.24 0.05 0 0.11 0 0.16 0.01l0.78-0.76 0.92 0.92c1.14 0.2 2.14 0.62 3.14 1.22v-7.39c0-1-1-1-1-1z" style="fill:#5c5c5c"/>
 <path d="m9 8c-4 0-5.845 2-7 4 1.155 2 3 4 7 4s5.845-2 7-4c-1.155-2-3-4-7-4zm0 1.5a2.5 2.5 0 0 1 2.5 2.5 2.5 2.5 0 0 1 -2.5 2.5 2.5 2.5 0 0 1 -2.5 -2.5 2.5 2.5 0 0 1 2.5 -2.5zm0 1.5a1 1 0 0 0 -1 1 1 1 0 0 0 1 1 1 1 0 0 0 1 -1 1 1 0 0 0 -1 -1z" style="fill:#5c5c5c"/>
</svg>

<svg xmlns="http://www.w3.org/2000/svg" width="16" height="16" version="1.1">
 <path style="fill:#5c5c5c" d="M 1,0 C 0,0 0,1 0,1 V 11 C 0,11.83 0.65,12 0.89,12 L 1.1,11.56 C 1.38,11 1.75,10.48 2.16,10 H 2 V 7.5 L 4.5,4.57 6.86,7.24 C 7.56,7.08 8.28,7 9,7 V 7 7 C 9.05,7 9.11,7 9.16,7.01 L 9.94,6.25 10.86,7.17 C 12,7.37 13,7.79 14,8.39 V 1 C 14,0 13,0 13,0 Z"/>
 <path style="fill:#5c5c5c" d="M 9,8 C 5,8 3.155,10 2,12 3.155,14 5,16 9,16 13,16 14.845,14 16,12 14.845,10 13,8 9,8 Z M 9,9.5 A 2.5,2.5 0 0 1 11.5,12 2.5,2.5 0 0 1 9,14.5 2.5,2.5 0 0 1 6.5,12 2.5,2.5 0 0 1 9,9.5 Z M 9,11 A 1,1 0 0 0 8,12 1,1 0 0 0 9,13 1,1 0 0 0 10,12 1,1 0 0 0 9,11 Z"/>
</svg>
